flaticon/grooming/hairdryer.svg

<svg xmlns="http://www.w3.org/2000/svg" width="32" height="32" viewBox="0 0 24 24">
    <path d="M 22 17.121094 L 22 11.601562 C 23.28125 10.320312 24 8.640625 24 6.800781 C 24 3.320312 21.398438 0.441406 18 0.0390625 L 1.800781 0 C 1.238281 0 0.800781 0.359375 0.679688 0.800781 C 0.238281 2.601562 0.238281 4.480469 0.679688 6.28125 C 0.800781 6.800781 1.28125 7.160156 1.800781 7.160156 L 10.441406 7.160156 C 10.582031 9.726562 12.144531 11.953125 14.449219 12.972656 C 14.308594 13.050781 14.183594 13.160156 14.078125 13.28125 C 13.839844 13.558594 13.761719 13.960938 13.839844 14.320312 L 14.238281 15.878906 C 14.398438 16.398438 14.878906 16.800781 15.441406 16.800781 L 16.292969 16.800781 L 16.359375 17.078125 L 15.039062 18.960938 C 14.640625 19.558594 14.558594 20.320312 14.839844 21 L 15.601562 22.761719 C 15.921875 23.519531 16.679688 24 17.480469 24 L 19.640625 24 C 20.480469 24 21.28125 23.480469 21.558594 22.640625 L 22.558594 19.921875 C 22.71875 19.441406 22.71875 18.921875 22.519531 18.441406 Z M 15.441406 16 C 15.238281 16 15.078125 15.878906 15.039062 15.679688 L 14.640625 14.121094 C 14.601562 14 14.640625 13.878906 14.71875 13.761719 C 14.800781 13.640625 14.921875 13.601562 15.039062 13.601562 C 15.039062 13.601562 15.480469 13.601562 15.480469 13.601562 L 16.078125 16 Z M 21.839844 19.640625 L 20.839844 22.359375 C 20.640625 22.878906 20.160156 23.199219 19.640625 23.199219 L 17.480469 23.199219 C 16.960938 23.199219 16.519531 22.878906 16.320312 22.441406 L 15.558594 20.679688 C 15.359375 20.28125 15.441406 19.800781 15.679688 19.441406 L 17.238281 17.28125 L 17.117188 16.800781 L 17.121094 16.800781 L 17.085938 16.667969 L 16.078125 12.679688 L 15.839844 12.640625 C 13.121094 12 11.199219 9.601562 11.199219 6.800781 L 11.199219 6.398438 L 1.839844 6.398438 C 1.679688 6.398438 1.519531 6.320312 1.480469 6.121094 C 1.078125 4.480469 1.078125 2.71875 1.480469 1.078125 C 1.519531 0.921875 1.640625 0.800781 1.800781 0.800781 L 17.238281 0.839844 L 17.558594 0.839844 C 20.71875 1.039062 23.199219 3.640625 23.199219 6.800781 C 23.199219 8.480469 22.519531 10 21.320312 11.160156 L 21.199219 11.28125 L 21.199219 17.28125 L 21.839844 18.71875 C 21.960938 19.039062 21.960938 19.359375 21.839844 19.640625 Z M 21.839844 19.640625"/>
    <path d="M17.199219 2C15.949219 2 14.804688 2.484375 13.949219 3.277344 13.929688 3.292969 13.910156 3.308594 13.894531 3.328125 12.972656 4.203125 12.398438 5.4375 12.398438 6.800781 12.398438 8.160156 12.972656 9.394531 13.894531 10.269531 13.910156 10.289062 13.929688 10.308594 13.949219 10.324219 14.804688 11.113281 15.949219 11.601562 17.199219 11.601562 18.453125 11.601562 19.59375 11.113281 20.453125 10.324219 20.472656 10.308594 20.492188 10.289062 20.507812 10.269531 21.425781 9.394531 22 8.160156 22 6.800781 22 4.160156 19.839844 2 17.199219 2zM20.046875 9.601562L14.351562 9.601562C14.117188 9.359375 13.910156 9.09375 13.742188 8.800781L20.660156 8.800781C20.488281 9.09375 20.285156 9.359375 20.046875 9.601562zM21.179688 6.398438L13.21875 6.398438C13.246094 6.125 13.304688 5.855469 13.386719 5.601562L21.015625 5.601562C21.097656 5.855469 21.152344 6.125 21.179688 6.398438zM13.386719 8C13.304688 7.742188 13.246094 7.476562 13.21875 7.199219L21.179688 7.199219C21.152344 7.476562 21.097656 7.742188 21.015625 8zM20.660156 4.800781L13.742188 4.800781C13.910156 4.507812 14.117188 4.238281 14.351562 4L20.046875 4C20.285156 4.238281 20.488281 4.507812 20.660156 4.800781zM18.9375 3.199219L15.460938 3.199219C15.988281 2.945312 16.578125 2.800781 17.199219 2.800781 17.820312 2.800781 18.410156 2.945312 18.9375 3.199219zM15.460938 10.398438L18.9375 10.398438C18.410156 10.65625 17.820312 10.800781 17.199219 10.800781 16.578125 10.800781 15.988281 10.65625 15.460938 10.398438zM11.601562 18.800781L11.601562 16C11.601562 15.761719 11.441406 15.601562 11.199219 15.601562 10.960938 15.601562 10.800781 15.761719 10.800781 16L10.800781 18.800781 10 18.800781 10 17.199219C10 16.960938 9.839844 16.800781 9.601562 16.800781 9.359375 16.800781 9.199219 16.960938 9.199219 17.199219L9.199219 18.800781 8.398438 18.800781 8.398438 16C8.398438 15.761719 8.238281 15.601562 8 15.601562 7.761719 15.601562 7.601562 15.761719 7.601562 16L7.601562 18.800781 6.800781 18.800781 6.800781 17.199219C6.800781 16.960938 6.640625 16.800781 6.398438 16.800781 6.160156 16.800781 6 16.960938 6 17.199219L6 18.800781 5.199219 18.800781 5.199219 16C5.199219 15.761719 5.039062 15.601562 4.800781 15.601562 4.558594 15.601562 4.398438 15.761719 4.398438 16L4.398438 18.800781 3.601562 18.800781 3.601562 17.199219C3.601562 16.960938 3.441406 16.800781 3.199219 16.800781 2.960938 16.800781 2.800781 16.960938 2.800781 17.199219L2.800781 18.800781 2 18.800781 2 16C2 15.761719 1.839844 15.601562 1.601562 15.601562 1.359375 15.601562 1.199219 15.761719 1.199219 16L1.199219 18.800781C.519531 18.800781 0 19.320312 0 20L0 20.800781C0 21.480469.519531 22 1.199219 22L2.519531 22 3.320312 24 9.480469 24 10.28125 22 11.601562 22C12.28125 22 12.800781 21.480469 12.800781 20.800781L12.800781 20C12.800781 19.320312 12.28125 18.800781 11.601562 18.800781zM12 20.800781C12 21.039062 11.839844 21.199219 11.601562 21.199219L9.71875 21.199219 8.921875 23.199219 3.878906 23.199219 3.078125 21.199219 1.199219 21.199219C.960938 21.199219.800781 21.039062.800781 20.800781L.800781 20C.800781 19.761719.960938 19.601562 1.199219 19.601562L11.601562 19.601562C11.839844 19.601562 12 19.761719 12 20zM20 21.199219L17.199219 21.199219C16.960938 21.199219 16.800781 21.359375 16.800781 21.601562 16.800781 21.839844 16.960938 22 17.199219 22L20 22C20.238281 22 20.398438 21.839844 20.398438 21.601562 20.398438 21.359375 20.238281 21.199219 20 21.199219zM20 19.601562L17.199219 19.601562C16.960938 19.601562 16.800781 19.761719 16.800781 20 16.800781 20.238281 16.960938 20.398438 17.199219 20.398438L20 20.398438C20.238281 20.398438 20.398438 20.238281 20.398438 20 20.398438 19.761719 20.238281 19.601562 20 19.601562zM20 19.601562"/>
    <path d="M8.398438 20.398438L6.398438 20.398438C6.160156 20.398438 6 20.558594 6 20.800781 6 21.039062 6.160156 21.199219 6.398438 21.199219L8.398438 21.199219C8.640625 21.199219 8.800781 21.039062 8.800781 20.800781 8.800781 20.558594 8.640625 20.398438 8.398438 20.398438zM4.800781 20.398438L4.398438 20.398438C4.160156 20.398438 4 20.558594 4 20.800781 4 21.039062 4.160156 21.199219 4.398438 21.199219L4.800781 21.199219C5.039062 21.199219 5.199219 21.039062 5.199219 20.800781 5.199219 20.558594 5.039062 20.398438 4.800781 20.398438zM4.800781 20.398438"/>
</svg>

<svg xmlns="http://www.w3.org/2000/svg" width="32" height="32" viewBox="0 0 24 24">
    <path d="M22 17.121v-5.52a6.713 6.713 0 0 0 2-4.8 6.8 6.8 0 0 0-6-6.762L1.8 0C1.239 0 .8.36.68.8.238 2.603.238 4.48.68 6.282c.12.52.601.88 1.12.88h8.641a6.746 6.746 0 0 0 4.008 5.812c-.14.078-.265.187-.37.308-.24.278-.317.68-.24 1.04l.4 1.558c.16.52.64.922 1.202.922h.852l.066.277-1.32 1.883a2.172 2.172 0 0 0-.2 2.039l.763 1.762A2.05 2.05 0 0 0 17.48 24h2.16c.84 0 1.641-.52 1.919-1.36l1-2.718c.16-.48.16-1-.04-1.48zM15.441 16a.39.39 0 0 1-.402-.32l-.398-1.559c-.04-.121 0-.242.078-.36a.367.367 0 0 1 .32-.16h.441L16.078 16zm6.399 3.64l-1 2.72c-.2.519-.68.84-1.2.84h-2.16c-.52 0-.96-.321-1.16-.759l-.761-1.761c-.2-.399-.118-.88.12-1.239l1.56-2.16-.122-.48h.004l-.035-.133-1.008-3.988-.238-.04A5.992 5.992 0 0 1 11.2 6.8v-.402H1.84c-.16 0-.32-.078-.36-.277a10.686 10.686 0 0 1 0-5.043c.04-.156.16-.277.32-.277L17.239.84h.32c3.16.2 5.641 2.8 5.641 5.96 0 1.68-.68 3.2-1.879 4.36l-.12.121v6l.64 1.438c.12.32.12.64 0 .922zm0 0"/>
    <path d="M17.2 2c-1.25 0-2.395.484-3.25 1.277-.02.016-.04.032-.055.051a4.777 4.777 0 0 0 .054 6.996c.856.79 2 1.278 3.25 1.278a4.8 4.8 0 0 0 3.309-1.332A4.787 4.787 0 0 0 22 6.8C22 4.16 19.84 2 17.2 2zm2.847 7.602h-5.695a4.053 4.053 0 0 1-.61-.801h6.918a4.072 4.072 0 0 1-.613.8zm1.133-3.204h-7.961c.027-.273.086-.543.168-.796h7.629c.082.253.136.523.164.796zM13.387 8a3.89 3.89 0 0 1-.168-.8h7.96a3.884 3.884 0 0 1-.163.8zm7.273-3.2h-6.918c.168-.292.375-.562.61-.8h5.695c.238.238.441.508.613.8zm-1.723-1.6h-3.476a3.999 3.999 0 0 1 3.476 0zm-3.476 7.198h3.476a3.947 3.947 0 0 1-3.476 0zm0 0M11.602 18.8V16c0-.238-.16-.398-.403-.398-.238 0-.398.16-.398.398v2.8H10v-1.6c0-.24-.16-.4-.398-.4-.243 0-.403.16-.403.4v1.6h-.8V16c0-.238-.16-.398-.399-.398-.238 0-.398.16-.398.398v2.8H6.8v-1.6c0-.24-.16-.4-.403-.4-.238 0-.398.16-.398.4v1.6h-.8V16c0-.238-.16-.398-.4-.398-.241 0-.402.16-.402.398v2.8h-.796v-1.6c0-.24-.16-.4-.403-.4-.238 0-.398.16-.398.4v1.6H2V16c0-.238-.16-.398-.398-.398-.243 0-.403.16-.403.398v2.8C.52 18.8 0 19.32 0 20v.8c0 .68.52 1.2 1.2 1.2h1.32l.8 2h6.16l.801-2h1.32c.68 0 1.2-.52 1.2-1.2V20c0-.68-.52-1.2-1.2-1.2zm.398 2c0 .24-.16.4-.398.4H9.719l-.797 2H3.879l-.8-2h-1.88c-.238 0-.398-.16-.398-.4V20c0-.238.16-.398.398-.398h10.403c.238 0 .398.16.398.398zm0 0M20 21.2h-2.8c-.24 0-.4.16-.4.402 0 .238.16.398.4.398H20c.238 0 .398-.16.398-.398 0-.243-.16-.403-.398-.403zm0 0M20 19.602h-2.8c-.24 0-.4.16-.4.398 0 .238.16.398.4.398H20c.238 0 .398-.16.398-.398 0-.238-.16-.398-.398-.398zm0 0"/>
    <path d="M8.398 20.398h-2c-.238 0-.398.16-.398.403 0 .238.16.398.398.398h2c.243 0 .403-.16.403-.398 0-.242-.16-.403-.403-.403zm0 0M4.8 20.398h-.402c-.238 0-.398.16-.398.403 0 .238.16.398.398.398h.403c.238 0 .398-.16.398-.398 0-.242-.16-.403-.398-.403zm0 0"/>
</svg>
